X:325
T: Leitrim Reel
S: "First Collection of Traditional Irish Music" (M.Mulvihill)
Z: B.Black
L: 1/8
M: 4/4
R: reel
K: D
B2 Ac BEED|E2 BE (3EDE Bc|BAFA D3 E|(3FED AD FDFA|
B2 Ac BEED|E2 BE (3EDE Bc|BAGF GABc|dBAG FDAF||
d2 ef gfed|fd (3BAB fd (3BAB|d2 ef gfed|ceae ceae|
d2 ef gfed|fBBA B3 g|afge fdec|dBAG FDFA||
